static/cards/FrenchDeck/cyberwave/card_spades_J.svg

<svg xmlns="http://www.w3.org/2000/svg" width="822" height="1122" fill="none" viewBox="0 0 822 1122"><rect width="822" height="1122" fill="#1a0033" rx="20"/><g fill="#fff066" clip-path="url(#a)"><path d="M117.487 160.92q-12.672 0-20.608-4.864-1.408-.768-.64-2.048l1.792-2.816q.384-.768.896-.768.384 0 .896.384 3.072 2.048 7.424 3.2a41.2 41.2 0 0 0 9.216 1.024q9.216 0 13.696-4.48 4.608-4.48 4.608-13.568v-62.08q0-2.944 2.944-2.944h1.024q2.944 0 2.944 2.944v61.824q0 10.88-6.272 17.536-6.144 6.656-17.92 6.656M121.202 281.503c10.18 10.18 26.685 10.18 36.865 0s10.18-26.685 0-36.865l-33.179-33.179a5.213 5.213 0 0 0-7.373 0l-33.179 33.179.004.003c-9.814 10.207-9.692 26.437.365 36.494s26.287 10.178 36.493.365z"/><rect width="5" height="33" x="118.5" y="266" rx="2.5"/><path d="M696.513 957.08q12.672 0 20.608 4.864 1.408.768.64 2.048l-1.792 2.816q-.384.768-.896.768-.384 0-.896-.384-3.072-2.048-7.424-3.2a41.2 41.2 0 0 0-9.216-1.024q-9.216 0-13.696 4.48-4.608 4.48-4.608 13.568v62.084q0 2.94-2.944 2.94h-1.024q-2.944 0-2.944-2.94v-61.828q0-10.88 6.272-17.536 6.144-6.656 17.92-6.656M692.798 836.497c-10.18-10.18-26.685-10.18-36.865 0s-10.18 26.685 0 36.865l33.179 33.179a5.213 5.213 0 0 0 7.373 0l33.179-33.179-.004-.003c9.814-10.207 9.692-26.436-.365-36.493s-26.287-10.179-36.493-.365z"/><rect width="5" height="33" x="695.5" y="852" rx="2.5" transform="rotate(-180 695.5 852)"/></g><path fill="#e6cf00" d="M527.781 240.13h-90.107c-11.046 0-20 8.954-20 20v72.592c0 4.012 1.206 7.932 3.463 11.249l66.711 98.074a20 20 0 0 0 16.536 8.751h43.706c11.045 0 20-8.954 20-20v-41.38c0-6.511 4.05-12.335 10.154-14.6 8.725-3.238 12.681-13.355 8.467-21.653l-17.978-35.399a20 20 0 0 1-1.101-2.613l-20.917-61.464a20 20 0 0 0-18.934-13.557"/><path fill="#fffacc" d="M535.539 407.8a3.126 3.126 0 0 1 2.952-3.121l24.764-1.375a4.273 4.273 0 1 1 .079 8.537l-24.785-.918a3.126 3.126 0 0 1-3.01-3.123"/><path fill="#e6cf00" d="M540.91 233.864H417.673l-12.689-23.715c-2.495-4.663.884-10.302 6.172-10.302h133.96c5.051 0 8.439 5.186 6.41 9.812z"/><path fill="#fffacc" d="m544.789 240.13 5.371 20.589h-78.192a20 20 0 0 0-19.539 15.729l-12.213 55.864a20 20 0 0 0-.461 4.271v94.213c0 11.046-8.955 20-20 20h-59.313c-13.318 0-22.916-12.774-19.209-25.566l25.74-88.84a20 20 0 0 1 1.528-3.779l48.874-92.481z"/><path fill="#fffacc" fill-rule="evenodd" d="M528.991 300.406a1 1 0 0 0-.775.368l-4.111 5.04c-.678.832.252 2.002 1.216 1.53l2.986-1.465c.137-.067.288-.102.441-.102h24.396a2.687 2.687 0 0 0 0-5.371z" clip-rule="evenodd"/><path fill="#998a00" d="m490.183 456.465-45.356-64.453v112.793h81.462l-8.654-48.34z"/><path fill="#e6cf00" d="M437.666 514.652v-33.42h-46.251l48.862 162.923h97.724l48.862-162.923h-57.889l6.266 33.42zM293.541 882.87h90.108c11.046 0 20-8.955 20-20v-72.593c0-4.012-1.207-7.931-3.463-11.248l-66.711-98.074a20 20 0 0 0-16.537-8.751h-43.705c-11.046 0-20 8.954-20 20v41.379a15.575 15.575 0 0 1-10.155 14.601c-8.725 3.238-12.681 13.355-8.467 21.653l17.978 35.399q.644 1.268 1.102 2.613l20.917 61.464a20 20 0 0 0 18.933 13.557"/><path fill="#fffacc" d="M285.783 715.2a3.124 3.124 0 0 1-2.951 3.12l-24.765 1.376a4.273 4.273 0 1 1-.079-8.537l24.786.918a3.124 3.124 0 0 1 3.009 3.123"/><path fill="#e6cf00" d="M280.413 889.136h123.236l12.689 23.714c2.495 4.663-.883 10.303-6.172 10.303H276.207c-5.051 0-8.44-5.186-6.411-9.812z"/><path fill="#fffacc" d="m276.533 882.87-5.371-20.59h78.193a20 20 0 0 0 19.538-15.728l12.213-55.864c.307-1.403.462-2.835.462-4.271v-94.213c0-11.046 8.954-20 20-20h59.312c13.319 0 22.917 12.773 19.21 25.566l-25.741 88.84a20 20 0 0 1-1.527 3.779l-48.875 92.481z"/><path fill="#fffacc" fill-rule="evenodd" d="M292.332 822.594a1 1 0 0 0 .775-.368l4.11-5.04c.678-.832-.252-2.003-1.215-1.53l-2.987 1.465a1 1 0 0 1-.44.102h-24.397a2.686 2.686 0 0 0 0 5.371z" clip-rule="evenodd"/><path fill="#998a00" d="m331.139 666.534 45.356 64.453V618.195h-81.461l8.653 48.339z"/><path fill="#e6cf00" d="M383.657 608.347v33.421h46.251l-48.862-162.923h-97.724L234.46 641.768h57.888l-6.266-33.421z"/><defs><clipPath id="a"><path fill="#fff" d="M46 48h722v1022H46z"/></clipPath></defs></svg>

<svg width="822" height="1122" viewBox="0 0 822 1122" fill="none" xmlns="http://www.w3.org/2000/svg">
<rect width="822" height="1122" rx="20" fill="#1A0033"/>
<g clip-path="url(#clip0_28_1275)">
<path d="M117.487 160.92C109.039 160.92 102.17 159.299 96.879 156.056C95.9403 155.544 95.727 154.861 96.239 154.008L98.031 151.192C98.287 150.68 98.5857 150.424 98.927 150.424C99.183 150.424 99.4817 150.552 99.823 150.808C101.871 152.173 104.346 153.24 107.247 154.008C110.234 154.691 113.306 155.032 116.463 155.032C122.607 155.032 127.172 153.539 130.159 150.552C133.231 147.565 134.767 143.043 134.767 136.984V74.904C134.767 72.9413 135.748 71.96 137.711 71.96H138.735C140.698 71.96 141.679 72.9413 141.679 74.904V136.728C141.679 143.981 139.588 149.827 135.407 154.264C131.311 158.701 125.338 160.92 117.487 160.92Z" fill="#FFF066"/>
<path d="M121.202 281.503C131.382 291.683 147.887 291.683 158.067 281.503C168.247 271.323 168.247 254.818 158.067 244.638L124.888 211.459C122.852 209.423 119.551 209.423 117.515 211.459L84.3364 244.638L84.34 244.641C74.5265 254.848 74.6481 271.078 84.7051 281.135C94.762 291.192 110.992 291.313 121.198 281.5L121.202 281.503Z" fill="#FFF066"/>
<rect x="118.5" y="266" width="5" height="33" rx="2.5" fill="#FFF066"/>
<path d="M696.513 957.08C704.961 957.08 711.83 958.701 717.121 961.944C718.06 962.456 718.273 963.139 717.761 963.992L715.969 966.808C715.713 967.32 715.414 967.576 715.073 967.576C714.817 967.576 714.518 967.448 714.177 967.192C712.129 965.827 709.654 964.76 706.753 963.992C703.766 963.309 700.694 962.968 697.537 962.968C691.393 962.968 686.828 964.461 683.841 967.448C680.769 970.435 679.233 974.957 679.233 981.016V1043.1C679.233 1045.06 678.252 1046.04 676.289 1046.04H675.265C673.302 1046.04 672.321 1045.06 672.321 1043.1V981.272C672.321 974.019 674.412 968.173 678.593 963.736C682.689 959.299 688.662 957.08 696.513 957.08Z" fill="#FFF066"/>
<path d="M692.798 836.497C682.618 826.317 666.113 826.317 655.933 836.497C645.753 846.677 645.753 863.182 655.933 873.362L689.112 906.541C691.148 908.577 694.449 908.577 696.485 906.541L729.664 873.362L729.66 873.359C739.474 863.152 739.352 846.923 729.295 836.866C719.238 826.809 703.008 826.687 692.802 836.501L692.798 836.497Z" fill="#FFF066"/>
<rect x="695.5" y="852" width="5" height="33" rx="2.5" transform="rotate(-180 695.5 852)" fill="#FFF066"/>
</g>
<path d="M527.781 240.13H437.674C426.628 240.13 417.674 249.084 417.674 260.13V332.722C417.674 336.734 418.88 340.654 421.137 343.971L487.848 442.045C491.571 447.519 497.763 450.796 504.384 450.796H548.09C559.135 450.796 568.09 441.842 568.09 430.796V389.416C568.09 382.905 572.14 377.081 578.244 374.816C586.969 371.578 590.925 361.461 586.711 353.163L568.733 317.764C568.305 316.92 567.937 316.047 567.632 315.151L546.715 253.687C543.956 245.581 536.344 240.13 527.781 240.13Z" fill="#E6CF00"/>
<path d="M535.539 407.8C535.539 406.141 536.835 404.771 538.491 404.679L563.255 403.304C565.705 403.167 567.766 405.117 567.766 407.57C567.766 409.992 565.755 411.93 563.334 411.841L538.549 410.923C536.869 410.86 535.539 409.481 535.539 407.8Z" fill="#FFFACC"/>
<path d="M540.91 233.864H417.673L404.984 210.149C402.489 205.486 405.868 199.847 411.156 199.847H545.116C550.167 199.847 553.555 205.033 551.526 209.659L540.91 233.864Z" fill="#E6CF00"/>
<path d="M544.789 240.13L550.16 260.719H471.968C462.568 260.719 454.437 267.265 452.429 276.448L440.216 332.312C439.909 333.715 439.755 335.147 439.755 336.583V430.796C439.755 441.842 430.8 450.796 419.755 450.796H360.442C347.124 450.796 337.526 438.022 341.233 425.23L366.973 336.39C367.352 335.082 367.864 333.816 368.501 332.611L417.375 240.13H544.789Z" fill="#FFFACC"/>
<path fill-rule="evenodd" clip-rule="evenodd" d="M528.991 300.406C528.69 300.406 528.405 300.541 528.216 300.774L524.105 305.814C523.427 306.646 524.357 307.816 525.321 307.344L528.307 305.879C528.444 305.812 528.595 305.777 528.748 305.777H553.144C554.627 305.777 555.83 304.574 555.83 303.091C555.83 301.608 554.627 300.406 553.144 300.406H528.991Z" fill="#FFFACC"/>
<path d="M490.183 456.465L444.827 392.012V504.805H526.289L517.635 456.465H490.183Z" fill="#998A00"/>
<path d="M437.666 514.652V481.232H391.415L440.277 644.155H489.139H538.001L586.863 481.232H528.974L535.24 514.652H437.666Z" fill="#E6CF00"/>
<path d="M293.541 882.87H383.649C394.695 882.87 403.649 873.915 403.649 862.87V790.277C403.649 786.265 402.442 782.346 400.186 779.029L333.475 680.955C329.751 675.481 323.559 672.204 316.938 672.204H273.233C262.187 672.204 253.233 681.158 253.233 692.204V733.583C253.233 740.094 249.182 745.918 243.078 748.184C234.353 751.422 230.397 761.539 234.611 769.837L252.589 805.236C253.018 806.08 253.386 806.953 253.691 807.849L274.608 869.313C277.366 877.419 284.979 882.87 293.541 882.87Z" fill="#E6CF00"/>
<path d="M285.783 715.2C285.783 716.859 284.488 718.228 282.832 718.32L258.067 719.696C255.618 719.832 253.557 717.883 253.557 715.429C253.557 713.007 255.568 711.069 257.988 711.159L282.774 712.077C284.454 712.139 285.783 713.519 285.783 715.2Z" fill="#FFFACC"/>
<path d="M280.413 889.136H403.649L416.338 912.85C418.833 917.513 415.455 923.153 410.166 923.153H276.207C271.156 923.153 267.767 917.967 269.796 913.341L280.413 889.136Z" fill="#E6CF00"/>
<path d="M276.533 882.87L271.162 862.28H349.355C358.754 862.28 366.886 855.735 368.893 846.552L381.106 790.688C381.413 789.285 381.568 787.853 381.568 786.417V692.204C381.568 681.158 390.522 672.204 401.568 672.204H460.88C474.199 672.204 483.797 684.977 480.09 697.77L454.349 786.61C453.97 787.918 453.458 789.184 452.822 790.389L403.947 882.87H276.533Z" fill="#FFFACC"/>
<path fill-rule="evenodd" clip-rule="evenodd" d="M292.332 822.594C292.632 822.594 292.917 822.459 293.107 822.226L297.217 817.186C297.895 816.354 296.965 815.183 296.002 815.656L293.015 817.121C292.878 817.188 292.727 817.223 292.575 817.223H268.178C266.695 817.223 265.493 818.426 265.493 819.909C265.493 821.392 266.695 822.594 268.178 822.594H292.332Z" fill="#FFFACC"/>
<path d="M331.139 666.534L376.495 730.987V618.195H295.034L303.687 666.534H331.139Z" fill="#998A00"/>
<path d="M383.657 608.347V641.768H429.908L381.046 478.845H332.184H283.322L234.46 641.768H292.348L286.082 608.347H383.657Z" fill="#E6CF00"/>
<defs>
<clipPath id="clip0_28_1275">
<rect width="722" height="1022" fill="white" transform="translate(46 48)"/>
</clipPath>
</defs>
</svg>
